assets/img/logo3.svg

<?xml version="1.0" standalone="no"?><!-- Generator: Gravit.io --><svg xmlns="http://www.w3.org/2000/svg" xmlns:xlink="http://www.w3.org/1999/xlink" style="isolation:isolate" viewBox="0 0 370 95" width="370" height="95"><defs><clipPath id="_clipPath_Mm0hLh9P86oFsfF3tIBkYGyeh5bFeUPZ"><rect width="370" height="95"/></clipPath></defs><g clip-path="url(#_clipPath_Mm0hLh9P86oFsfF3tIBkYGyeh5bFeUPZ)"><g><path d=" M 19.591 45.438 C 19.524 45.327 19.468 45.226 19.413 45.125 Q 12.673 32.94 13.751 14.391 Q 33.162 11.749 47.72 22.479 C 47.75 22.501 47.779 22.523 47.808 22.546 L 47.808 22.546 L 47.808 22.546 Q 62.316 33.253 74.411 47.552 L 40.441 76.669 Q 26.329 57.551 19.591 45.438 L 19.591 45.438 Z " fill="rgb(244,106,106)"/><path d=" M 30.836 67.819 L 47.012 88.848 Q 39.072 89.102 32.454 83.186 C 25.673 77.126 26.204 71.473 30.836 67.819 Z " fill="rgb(244,106,106)"/><path d=" M 48.397 55.17 C 44.843 58.426 47.438 64.504 52.441 70.538 Q 57.739 76.927 70.234 78.626 Q 71.195 68.535 64.573 60.023 C 59.143 53.044 52.657 51.982 48.397 55.17 Z " fill="rgb(244,106,106)"/><path d=" M 68.76 39.517 L 85.745 53.266 Q 90.955 44.799 84.127 39.517 C 79.783 36.156 73.035 36.164 68.76 39.517 Z " fill="rgb(244,106,106)"/><path d=" M 35.654 39.386 L 32.773 58.531 L 52.091 56.041 L 46.249 50.122 L 38.185 53.191 L 41.087 44.892 L 35.654 39.386 Z " fill="rgb(255,255,255)"/><path d=" M 37.65 35.755 L 56.831 33.127 L 54.086 52.41 L 48.245 46.491 L 51.42 38.468 L 43.083 41.261 L 37.65 35.755 Z " fill="rgb(255,255,255)"/></g><g transform="matrix(1,0,0,1,92,6.081)"><text transform="matrix(1,0,0,1,0,64.949)" style="font-family:&quot;Caesar Dressing&quot;;font-weight:400;font-size:61px;font-style:normal;fill:#D9D9D9;stroke:none;">relaxslow</text></g></g></svg>

<?xml version="1.0" encoding="utf-8"?>
<!-- Generator: Adobe Illustrator 23.0.1, SVG Export Plug-In . SVG Version: 6.00 Build 0)  -->
<svg version="1.1" id="Layer_1" x="0px" y="0px"
	 viewBox="0 0 370 95" enable-background="new 0 0 370 95" xml:space="preserve">
<path fill="#F46A6A" d="M19.6,45.4c-0.1-0.1-0.1-0.2-0.2-0.3C14.9,37,13,26.8,13.8,14.4c12.9-1.8,24.3,0.9,34,8.1c0,0,0.1,0,0.1,0.1
	l0,0l0,0c9.7,7.1,18.5,15.5,26.6,25l-34,29.1C31,63.9,24.1,53.5,19.6,45.4L19.6,45.4z"/>
<path fill="#F46A6A" d="M30.8,67.8l16.2,21c-5.3,0.2-10.1-1.7-14.6-5.7C25.7,77.1,26.2,71.5,30.8,67.8z"/>
<path fill="#F46A6A" d="M48.4,55.2c-3.6,3.3-1,9.3,4,15.4c3.5,4.3,9.5,7,17.8,8.1c0.6-6.7-1.2-12.9-5.7-18.6
	C59.1,53,52.7,52,48.4,55.2z"/>
<path fill="#F46A6A" d="M68.8,39.5l17,13.7c3.5-5.6,2.9-10.2-1.6-13.7C79.8,36.2,73,36.2,68.8,39.5z"/>
<path fill="#FFFFFF" d="M35.7,39.4l-2.9,19.1L52.1,56l-5.8-5.9l-8.1,3.1l2.9-8.3L35.7,39.4z"/>
<path fill="#FFFFFF" d="M37.7,35.8l19.2-2.6l-2.7,19.3l-5.8-5.9l3.2-8l-8.3,2.8L37.7,35.8z"/>
<text transform="matrix(1 0 0 1 92 71.03)" fill="#D9D9D9" font-family="'ArialMT'" font-size="61px">relaxslow</text>
</svg>
